<?xml version="1.0" encoding="UTF-8"?>
<map version="1.10" tiledversion="1.12.1" orientation="orthogonal" renderorder="right-down" width="40" height="30" tilewidth="32" tileheight="32" infinite="0" nextlayerid="17" nextobjectid="74">
 <editorsettings>
  <export target="PixelOfficeMap.json" format="json"/>
 </editorsettings>
 <tileset firstgid="1" name="FloorAndGround" tilewidth="32" tileheight="32" tilecount="2560" columns="64">
  <image source="../tiles/FloorAndGround.png" width="2048" height="1280"/>
 </tileset>
 <tileset firstgid="2561" name="Modern_Office_Black_Shadow" tilewidth="32" tileheight="32" tilecount="848" columns="16">
  <image source="../tiles/Modern_Office_Black_Shadow.png" width="512" height="1696"/>
 </tileset>
 <tileset firstgid="3409" name="Basement" tilewidth="32" tileheight="32" tilecount="800" columns="16">
  <image source="../../../../../../../../../Downloads/office saman/Basement.png" width="512" height="1600"/>
 </tileset>
 <tileset firstgid="4209" name="Generic" tilewidth="32" tileheight="32" tilecount="1248" columns="16">
  <image source="../../../../../../../../../Downloads/office saman/Generic.png" width="512" height="2496"/>
 </tileset>
 <tileset firstgid="5457" name="Basement" tilewidth="32" tileheight="32" tilecount="800" columns="16">
  <image source="../tiles/Basement.png" width="512" height="1600"/>
 </tileset>
 <tileset firstgid="6257" name="chair" tilewidth="32" tileheight="32" tilecount="46" columns="1">
  <image source="../tiles/chair.png" width="32" height="1472"/>
 </tileset>
 <tileset firstgid="6303" name="FloorAndGround" tilewidth="32" tileheight="32" tilecount="2560" columns="64">
  <image source="../tiles/FloorAndGround.png" width="2048" height="1280"/>
 </tileset>
 <layer id="1" name="Ground" width="40" height="30">
  <data encoding="csv">
0,0,0,0,0,0,0,0,0,0,0,0,0,0,0,0,0,0,0,0,0,0,0,0,0,0,0,0,0,0,0,0,0,0,0,0,0,0,0,0,
0,0,0,0,0,0,0,0,0,0,0,0,0,0,0,0,0,0,0,0,0,0,0,0,0,0,0,0,0,0,0,0,0,0,0,0,0,0,0,0,
0,0,0,0,0,0,0,0,0,0,0,0,0,0,0,0,0,0,0,0,0,0,0,0,0,0,0,0,0,0,0,0,0,0,0,0,0,0,0,0,
0,0,731,732,732,732,732,732,732,732,732,732,732,732,732,732,732,732,0,603,604,604,604,604,604,604,604,604,604,604,604,604,604,604,604,604,604,604,604,0,
0,0,795,796,796,796,796,796,796,796,796,796,796,796,796,796,796,796,0,667,668,668,668,668,668,668,668,668,668,668,668,668,668,668,668,668,668,668,668,0,
0,0,795,796,796,796,796,796,796,796,796,796,796,796,796,796,796,796,0,667,668,668,668,668,668,668,668,668,668,668,668,668,668,668,668,668,668,668,668,0,
0,0,795,796,796,796,796,796,796,796,796,796,796,796,796,796,796,796,0,667,668,668,668,668,668,668,668,668,668,668,668,668,668,668,668,668,668,668,668,0,
0,0,795,796,796,796,796,796,796,796,796,796,796,796,796,796,796,796,0,667,668,668,668,668,668,668,668,668,668,668,668,668,668,668,668,668,668,668,668,0,
0,0,795,796,796,796,796,796,796,796,796,796,796,796,796,796,796,796,0,0,668,0,0,0,0,0,0,0,0,0,0,0,0,0,0,0,0,0,0,0,
0,0,795,796,796,796,796,796,796,796,796,796,796,796,796,796,796,796,0,0,415,0,0,0,0,0,0,0,0,0,0,0,0,0,0,0,0,0,0,0,
0,0,795,796,796,796,796,796,796,796,796,796,796,796,796,796,796,796,0,350,415,351,0,262,263,263,263,263,263,263,263,263,263,263,263,263,263,263,263,0,
0,0,795,796,796,796,796,796,796,796,796,796,796,796,796,796,796,796,0,414,415,415,0,326,327,327,327,327,327,327,327,327,327,327,327,327,327,327,327,0,
0,0,795,796,796,796,796,796,796,796,796,796,796,796,796,796,796,796,0,414,415,415,0,326,327,327,327,327,327,327,327,327,327,327,327,327,327,327,327,0,
0,0,0,0,0,0,0,0,796,796,0,0,0,0,0,0,0,0,0,414,415,415,263,327,327,327,327,327,327,327,327,327,327,327,327,327,327,327,327,0,
0,0,0,0,0,0,0,0,415,415,0,0,0,0,0,0,0,0,0,414,415,415,0,326,327,327,327,327,327,327,327,327,327,327,327,327,327,327,327,0,
0,0,351,351,351,351,351,351,415,415,351,351,351,351,351,351,351,351,351,352,415,415,0,326,327,327,327,327,327,327,327,327,327,327,327,327,327,327,327,0,
0,0,415,415,415,415,415,415,415,415,415,415,415,415,415,415,415,415,415,415,415,415,0,326,327,327,327,327,327,327,327,327,327,327,327,327,327,327,327,0,
0,0,415,415,415,415,415,415,415,415,415,415,415,415,415,415,415,415,415,415,415,415,0,326,327,327,327,327,327,327,327,327,327,327,327,327,327,327,327,0,
0,0,0,0,0,0,0,0,415,415,0,0,0,0,0,0,0,0,0,414,415,415,0,326,327,327,327,327,327,327,327,327,327,327,327,327,327,327,327,0,
0,0,665,665,665,665,665,0,540,540,0,665,665,665,665,665,665,665,0,414,415,415,0,326,327,327,327,327,327,327,327,327,327,327,327,327,327,327,327,0,
0,0,475,476,476,476,476,476,540,540,476,476,476,476,476,476,476,476,0,414,415,415,0,326,327,327,327,327,327,327,327,327,327,327,327,327,327,327,327,0,
0,0,539,540,540,540,540,540,540,540,540,540,540,540,540,540,540,540,0,414,415,415,0,326,327,327,327,327,327,327,327,327,327,327,327,327,327,327,327,0,
0,0,539,540,540,540,540,540,540,540,540,540,540,540,540,540,540,540,0,414,415,415,0,326,327,327,327,327,327,327,327,327,327,327,327,327,327,327,327,0,
0,0,539,540,540,540,540,540,540,540,540,540,540,540,540,540,540,540,0,414,415,415,0,326,327,327,327,327,327,327,327,327,327,327,327,327,327,327,327,0,
0,0,539,540,540,540,540,540,540,540,540,540,540,540,540,540,540,540,0,414,415,415,0,326,327,327,327,327,327,327,327,327,327,327,327,327,327,327,327,0,
0,0,539,540,540,540,540,540,540,540,540,540,540,540,540,540,540,540,0,414,415,415,0,326,327,327,327,327,327,327,327,327,327,327,327,327,327,327,327,0,
0,0,539,540,540,540,540,540,540,540,540,540,540,540,540,540,540,540,0,414,415,415,0,326,327,327,327,327,327,327,327,327,327,327,327,327,327,327,327,0,
0,0,539,540,540,540,540,540,540,540,540,540,540,540,540,540,540,540,0,670,671,671,0,326,327,327,327,327,327,327,327,327,327,327,327,327,327,327,327,0,
0,0,539,540,540,540,540,540,540,540,540,540,540,540,540,540,540,540,0,670,671,671,0,326,327,327,327,327,327,327,327,327,327,327,327,327,327,327,327,0,
0,0,0,0,0,0,0,0,0,0,0,0,0,0,0,0,0,0,0,0,0,0,0,0,0,0,0,0,0,0,0,0,0,0,0,0,0,0,0,0
</data>
 </layer>
 <layer id="13" name="walls" width="40" height="30">
  <properties>
   <property name="collides" value="true"/>
  </properties>
  <data encoding="csv">
0,0,0,0,0,0,0,0,0,0,0,0,0,0,0,0,0,0,0,0,0,0,0,0,0,0,0,0,0,0,0,0,0,0,0,0,0,0,0,0,
0,88,594,594,594,594,594,594,594,594,594,594,594,594,594,594,594,594,28,594,594,594,594,594,594,594,594,594,594,594,594,594,594,594,594,594,594,594,594,90,
0,152,658,658,658,658,658,658,658,658,658,658,658,658,658,658,658,658,92,658,658,658,658,658,658,658,658,658,658,658,658,658,658,658,658,658,658,658,658,154,
0,152,0,0,0,0,0,0,0,0,0,0,0,0,0,0,0,0,92,0,0,0,0,0,0,0,0,0,0,0,0,0,0,0,0,0,0,0,0,154,
0,152,0,0,0,0,0,0,0,0,0,0,0,0,0,0,0,0,92,0,0,0,0,0,0,0,0,0,0,0,0,0,0,0,0,0,0,0,0,154,
0,152,0,0,0,0,0,0,0,0,0,0,0,0,0,0,0,0,92,0,0,0,0,0,0,0,0,0,0,0,0,0,0,0,0,0,0,0,0,154,
0,152,0,0,0,0,0,0,0,0,0,0,0,0,0,0,0,0,92,0,0,0,0,0,0,0,0,0,0,0,0,0,0,0,0,0,0,0,0,154,
0,152,0,0,0,0,0,0,0,0,0,0,0,0,0,0,0,0,92,0,0,0,0,0,0,0,0,0,0,0,0,0,0,0,0,0,0,0,0,154,
0,152,0,0,0,0,0,0,0,0,0,0,0,0,0,0,0,0,92,595,0,593,28,594,594,594,594,594,594,594,594,594,594,594,594,594,594,594,594,90,
0,152,0,0,0,0,0,0,0,0,0,0,0,0,0,0,0,0,92,659,0,657,92,658,658,658,658,658,658,658,658,658,658,658,658,658,658,658,658,154,
0,152,0,0,0,0,0,0,0,0,0,0,0,0,0,0,0,0,92,0,0,0,92,0,0,0,0,0,0,0,0,0,0,0,0,0,0,0,0,154,
0,152,0,0,0,0,0,0,0,0,0,0,0,0,0,0,0,0,92,0,0,0,596,0,0,0,0,0,0,0,0,0,0,0,0,0,0,0,0,19,
0,152,0,0,0,0,0,0,0,0,0,0,0,0,0,0,0,0,92,0,0,0,660,0,0,0,0,0,0,0,0,0,0,0,0,0,0,0,0,19,
0,152,594,594,594,594,594,595,0,0,593,594,594,594,594,594,594,594,602,0,0,0,0,0,0,0,0,0,0,0,0,0,0,0,0,0,0,0,0,19,
0,152,658,658,658,658,658,659,0,0,657,658,658,658,658,658,658,658,659,0,0,0,93,0,0,0,0,0,0,0,0,0,0,0,0,0,0,0,0,19,
0,152,0,0,0,0,0,0,0,0,0,0,0,0,0,0,0,0,0,0,0,0,92,0,0,0,0,0,0,0,0,0,0,0,0,0,0,0,0,19,
0,152,0,0,0,0,0,0,0,0,0,0,0,0,0,0,0,0,0,0,0,0,92,0,0,0,0,0,0,0,0,0,0,0,0,0,0,0,0,19,
0,152,0,0,0,0,0,0,0,0,0,0,0,0,0,0,0,0,0,0,0,0,92,0,0,0,0,0,0,0,0,0,0,0,0,0,0,0,0,19,
0,152,594,594,594,594,594,595,0,0,593,594,594,594,594,594,594,594,27,0,0,0,92,0,0,0,0,0,0,0,0,0,0,0,0,0,0,0,0,19,
0,152,0,0,0,0,0,659,0,0,657,0,0,0,0,0,0,0,92,0,0,0,92,0,0,0,0,0,0,0,0,0,0,0,0,0,0,0,0,19,
0,152,0,0,0,0,0,0,0,0,0,0,0,0,0,0,0,0,92,0,0,0,92,0,0,0,0,0,0,0,0,0,0,0,0,0,0,0,0,19,
0,152,0,0,0,0,0,0,0,0,0,0,0,0,0,0,0,0,92,0,0,0,92,0,0,0,0,0,0,0,0,0,0,0,0,0,0,0,0,19,
0,152,0,0,0,0,0,0,0,0,0,0,0,0,0,0,0,0,92,0,0,0,92,0,0,0,0,0,0,0,0,0,0,0,0,0,0,0,0,19,
0,152,0,0,0,0,0,0,0,0,0,0,0,0,0,0,0,0,92,0,0,0,92,0,0,0,0,0,0,0,0,0,0,0,0,0,0,0,0,19,
0,152,0,0,0,0,0,0,0,0,0,0,0,0,0,0,0,0,92,0,0,0,92,0,0,0,0,0,0,0,0,0,0,0,0,0,0,0,0,19,
0,152,0,0,0,0,0,0,0,0,0,0,0,0,0,0,0,0,92,0,0,0,92,0,0,0,0,0,0,0,0,0,0,0,0,0,0,0,0,19,
0,152,0,0,0,0,0,0,0,0,0,0,0,0,0,0,0,0,92,0,0,0,92,0,0,0,0,0,0,0,0,0,0,0,0,0,0,0,0,19,
0,152,0,0,0,0,0,0,0,0,0,0,0,0,0,0,0,0,92,0,0,0,92,0,0,0,0,0,0,0,0,0,0,0,0,0,0,0,0,19,
0,152,0,0,0,0,0,0,0,0,0,0,0,0,0,0,0,0,92,0,0,0,92,0,0,0,0,0,0,0,0,0,0,0,0,0,0,0,0,19,
0,216,217,217,217,217,217,217,217,217,217,217,217,217,217,217,217,217,89,89,89,89,85,217,217,217,217,217,217,217,217,217,217,217,217,217,217,217,217,218
</data>
 </layer>
 <layer id="12" name="carpet" width="40" height="30">
  <data encoding="csv">
0,0,0,0,0,0,0,0,0,0,0,0,0,0,0,0,0,0,0,0,0,0,0,0,0,0,0,0,0,0,0,0,0,0,0,0,0,0,0,0,
0,0,0,0,0,0,0,0,0,0,0,0,0,0,0,0,0,0,0,0,0,0,0,0,0,0,0,0,0,0,0,0,0,0,0,0,0,0,0,0,
0,0,0,0,0,0,0,0,0,0,0,0,0,0,0,0,0,0,0,0,0,0,0,0,0,0,0,0,0,0,0,0,0,0,0,0,0,0,0,0,
0,0,0,0,0,0,0,0,0,0,0,0,0,0,0,0,0,0,0,0,0,0,0,0,0,0,0,0,0,0,0,4564,4566,4566,4566,4649,4565,0,0,0,
0,0,0,0,0,0,0,0,0,0,0,0,0,0,0,0,0,0,0,0,0,0,0,0,0,0,0,0,0,0,0,4596,4598,4598,4598,4598,4597,0,0,0,
0,0,0,0,0,0,0,0,0,0,0,0,0,0,0,0,0,0,0,0,0,0,0,0,0,0,0,0,0,0,0,4596,4598,4598,4598,4598,4597,0,0,0,
0,0,0,0,0,0,0,0,0,0,0,0,0,0,0,0,0,0,0,0,0,0,0,0,0,0,0,0,0,0,0,4580,4582,4582,4582,4665,4581,0,0,0,
0,0,0,0,0,0,0,0,0,0,0,0,0,0,0,0,0,0,0,0,0,0,0,0,0,0,0,0,0,0,0,0,0,0,0,0,0,0,0,0,
0,0,0,0,0,0,0,0,0,0,0,0,0,0,0,0,0,0,0,0,0,0,0,0,0,0,0,0,0,0,0,0,0,0,0,0,0,0,0,0,
0,0,0,0,0,0,0,0,0,0,0,0,0,0,0,0,0,0,0,0,0,0,0,0,0,0,0,0,0,0,0,0,0,0,0,0,0,0,0,0,
0,0,0,0,0,0,0,0,0,0,0,0,0,0,0,0,0,0,0,0,0,0,0,0,0,0,0,0,0,0,0,0,0,0,0,0,0,0,0,0,
0,0,0,0,0,0,0,0,0,0,0,0,0,0,0,0,0,0,0,0,0,0,0,0,0,0,0,0,0,0,0,0,0,0,0,0,0,0,0,0,
0,0,0,0,0,0,0,0,0,0,0,0,0,0,0,0,0,0,0,0,0,0,0,0,0,0,0,0,0,0,0,0,0,0,0,0,0,0,0,0,
0,0,0,0,0,0,0,0,0,0,0,0,0,0,0,0,0,0,0,0,0,0,0,0,0,0,0,0,0,0,0,0,0,0,0,0,0,0,0,0,
0,0,0,0,0,0,0,0,0,0,0,0,0,0,0,0,0,0,0,0,0,0,0,0,0,0,0,0,0,0,0,0,0,0,0,0,0,0,0,0,
0,0,0,0,0,0,0,0,0,0,0,0,0,0,0,0,0,0,0,0,0,0,0,0,0,0,0,0,0,0,0,0,0,0,0,0,0,0,0,0,
0,0,0,0,0,0,0,0,0,0,0,0,0,0,0,0,0,0,0,0,0,0,0,0,0,0,0,0,0,0,0,0,0,0,0,0,0,0,0,0,
0,0,0,0,0,0,0,0,0,0,0,0,0,0,0,0,0,0,0,0,0,0,0,0,0,0,0,0,0,0,0,0,0,0,0,0,0,0,0,0,
0,0,0,0,0,0,0,0,0,0,0,0,0,0,0,0,0,0,0,0,0,0,0,0,0,0,0,0,0,0,0,0,0,0,0,0,0,0,0,0,
0,0,0,0,0,0,0,0,0,0,0,0,0,0,0,0,0,0,0,0,0,0,0,0,0,0,0,0,0,0,0,0,0,0,0,0,0,0,0,0,
0,0,0,0,0,0,0,0,0,0,0,0,0,0,0,0,0,0,0,0,0,0,0,0,0,0,0,0,0,0,0,0,0,0,0,0,0,0,0,0,
0,0,0,0,0,0,0,0,0,0,0,0,0,0,0,0,0,0,0,0,0,0,0,0,0,0,0,0,0,0,0,0,0,0,0,0,0,0,0,0,
0,0,0,0,0,0,0,0,0,0,0,0,0,0,0,0,0,0,0,0,0,0,0,0,0,0,0,0,0,0,0,0,0,0,0,0,0,0,0,0,
0,0,0,0,0,0,0,0,0,0,0,0,0,0,0,0,0,0,0,0,0,0,0,0,0,0,0,0,0,0,0,0,0,0,0,0,0,0,0,0,
0,0,0,0,0,0,0,0,0,0,0,0,0,0,0,0,0,0,0,0,0,0,0,0,0,0,0,0,0,0,0,0,0,0,0,0,0,0,0,0,
0,0,0,0,0,0,0,0,0,0,0,0,0,0,0,0,0,0,0,0,0,0,0,0,0,0,0,0,0,0,0,0,0,0,0,0,0,0,0,0,
0,0,0,0,0,0,0,0,0,0,0,0,0,0,0,0,0,0,0,0,0,0,0,0,0,0,0,0,0,0,0,0,0,0,0,0,0,0,0,0,
0,0,0,0,0,0,0,0,0,0,0,0,0,0,0,0,0,0,0,0,0,0,0,0,0,0,0,0,0,0,0,0,0,0,0,0,0,0,0,0,
0,0,0,0,0,0,0,0,0,0,0,0,0,0,0,0,0,0,0,0,0,0,0,0,0,0,0,0,0,0,0,0,0,0,0,0,0,0,0,0,
0,0,0,0,0,0,0,0,0,0,0,0,0,0,0,0,0,0,0,0,0,0,0,0,0,0,0,0,0,0,0,0,0,0,0,0,0,0,0,0
</data>
 </layer>
 <layer id="7" name="compounds" width="40" height="30">
  <properties>
   <property name="collides" value="true"/>
  </properties>
  <data encoding="csv">
0,0,0,0,0,0,0,0,0,0,0,0,0,0,0,0,0,0,0,0,0,0,0,0,0,0,0,0,0,0,0,0,0,0,0,0,0,0,0,0,
0,0,0,0,0,0,0,0,0,0,0,0,0,0,0,0,0,0,0,0,0,0,0,0,0,0,0,0,0,0,0,0,0,0,0,0,0,0,0,0,
0,0,0,0,0,0,0,0,0,0,0,0,0,0,0,0,0,0,0,0,0,0,0,0,0,0,0,0,0,0,0,0,0,0,0,0,0,0,0,0,
0,0,0,0,0,0,0,0,0,0,0,0,0,0,0,0,0,0,0,0,0,0,0,0,0,0,0,0,0,0,0,0,0,0,0,0,0,0,0,0,
0,0,0,0,0,0,0,0,0,0,0,0,0,0,0,0,0,0,0,0,0,0,0,0,0,0,0,0,0,0,0,0,0,0,0,0,0,0,0,0,
0,0,0,0,0,0,0,0,0,0,0,0,0,0,0,0,0,0,0,0,0,0,0,0,0,0,0,0,0,0,0,0,0,0,0,0,0,0,0,0,
0,0,0,0,0,0,0,0,0,0,0,0,0,0,0,0,0,0,0,0,0,0,0,0,0,0,0,0,0,0,0,0,0,0,0,0,0,0,0,0,
0,0,0,0,0,0,0,0,0,0,0,0,0,0,0,0,0,0,0,0,0,0,0,0,0,0,0,0,0,0,0,0,0,0,0,0,0,0,0,0,
0,0,0,0,0,0,0,0,0,0,0,0,0,0,0,0,0,0,0,0,0,0,0,0,0,0,0,0,0,0,0,0,0,0,0,0,0,0,0,0,
0,0,0,0,0,0,0,0,0,0,0,0,0,0,0,0,0,0,0,0,0,0,0,0,0,0,0,0,0,0,0,0,0,0,0,0,0,0,0,0,
0,0,0,0,0,0,0,0,0,0,0,0,0,0,0,0,0,0,0,0,0,0,0,0,0,0,0,0,0,0,0,0,0,0,0,0,0,0,0,0,
0,0,0,0,0,0,0,0,0,0,0,0,0,0,0,0,0,0,0,0,0,0,0,0,0,0,0,0,0,0,0,0,0,0,0,0,0,0,0,0,
0,0,0,0,0,0,0,0,0,0,0,0,0,0,0,0,0,0,0,0,0,0,0,0,0,0,0,0,0,0,0,0,0,0,0,0,0,0,0,0,
0,0,0,0,0,0,0,0,0,0,0,0,0,0,0,0,0,0,0,0,0,0,0,0,0,0,0,0,0,0,0,0,0,0,0,0,0,0,0,0,
0,0,0,0,0,0,0,0,0,0,0,0,0,0,0,0,0,0,0,0,0,0,0,0,0,0,0,0,0,2977,2978,2979,2980,2981,2982,2983,2981,2982,2983,0,
0,0,0,0,0,0,0,0,0,0,0,0,0,0,0,0,0,0,0,0,0,0,0,0,0,0,0,0,0,2993,2994,2995,2996,2997,2998,2999,2997,2998,2999,0,
0,0,0,0,0,0,0,0,0,0,0,0,0,0,0,0,0,0,0,0,0,0,0,0,0,0,0,0,0,3009,3010,3011,3012,3013,3014,3015,3013,3014,3015,0,
0,0,0,0,0,0,0,0,0,0,0,0,0,0,0,0,0,0,0,0,0,0,0,0,0,0,0,0,0,0,0,0,0,0,0,0,0,0,0,0,
0,0,0,0,0,0,0,0,0,0,0,0,0,0,0,0,0,0,0,0,0,0,0,0,0,0,0,0,0,0,0,0,0,0,0,0,0,0,0,0,
0,0,0,0,0,0,0,0,0,0,0,0,0,0,0,0,0,0,0,0,0,0,0,0,0,0,0,0,0,0,0,0,0,0,0,0,0,0,0,0,
0,0,0,0,0,0,0,0,0,0,0,0,0,0,0,0,0,0,0,0,0,0,0,0,0,0,0,0,0,0,0,0,0,0,0,0,0,0,0,0,
0,0,0,0,0,0,0,0,0,0,0,0,0,0,0,0,0,0,0,0,0,0,0,0,0,0,0,0,0,0,0,0,0,0,0,0,0,0,0,0,
0,0,0,0,0,0,0,0,0,0,0,0,0,0,0,0,0,0,0,0,0,0,0,0,0,0,0,0,0,2977,2978,2979,2980,2981,2982,2983,2981,2982,2983,0,
0,0,0,0,0,0,0,0,0,0,0,0,0,0,0,0,0,0,0,0,0,0,0,0,0,0,0,0,0,2993,2994,2995,2996,2997,2998,2999,2997,2998,2999,0,
0,0,0,0,0,0,0,0,0,0,0,0,0,0,0,0,0,0,0,0,0,0,0,0,0,0,0,0,0,3009,3010,3011,3012,3013,3014,3015,3013,3014,3015,0,
0,0,0,0,0,0,0,0,0,0,0,0,0,0,0,0,0,0,0,0,0,0,0,0,0,0,0,0,0,0,0,0,0,0,0,0,0,0,0,0,
0,0,0,0,0,0,0,0,0,0,0,0,0,0,0,0,0,0,0,0,0,0,0,0,0,0,0,0,0,0,0,0,0,0,0,0,0,0,0,0,
0,0,0,0,0,0,0,0,0,0,0,0,0,0,0,0,0,0,0,0,0,0,0,0,0,0,0,0,0,0,0,0,0,0,0,0,0,0,0,0,
0,0,0,0,0,0,0,0,0,0,0,0,0,0,0,0,0,0,0,0,0,0,0,0,0,0,0,0,0,0,0,0,0,0,0,0,0,0,0,0,
0,0,0,0,0,0,0,0,0,0,0,0,0,0,0,0,0,0,0,0,0,0,0,0,0,0,0,0,0,0,0,0,0,0,0,0,0,0,0,0
</data>
 </layer>
 <layer id="6" name="chairs" width="40" height="30">
  <properties>
   <property name="collides" value="true"/>
  </properties>
  <data encoding="csv">
0,0,0,0,0,0,0,0,0,0,0,0,0,0,0,0,0,0,0,0,0,0,0,0,0,0,0,0,0,0,0,0,0,0,0,0,0,0,0,0,
0,0,0,0,0,0,0,0,0,0,0,0,0,0,0,0,0,0,0,0,0,0,0,0,0,0,0,0,0,0,0,0,0,0,0,0,0,0,0,0,
0,0,0,0,0,0,0,0,0,0,0,0,0,0,0,0,0,0,0,0,3418,3420,3420,3419,0,0,0,0,0,0,0,0,0,0,0,0,0,0,0,0,
0,0,0,0,0,0,0,0,0,0,0,0,0,0,0,0,0,0,0,0,3434,3436,3436,3435,0,0,0,0,0,0,0,0,0,2726,0,0,0,0,0,0,
0,0,0,3482,3483,0,0,0,3480,3481,0,0,3723,0,0,0,3725,0,0,0,0,0,0,0,0,0,0,0,0,0,0,0,0,2742,3939,2725,0,0,0,0,
0,0,0,3498,3499,0,0,0,3496,3497,0,0,3739,0,0,0,3741,0,0,0,0,0,0,0,0,0,0,0,0,0,0,0,0,2726,3955,2741,0,0,0,0,
0,0,0,3514,3515,3565,3566,3567,3512,3513,0,0,3725,0,0,0,3723,0,0,0,0,0,0,0,0,0,0,0,0,0,0,0,0,2742,0,0,0,0,0,0,
0,0,0,0,0,3581,3582,3583,0,0,0,0,3741,0,0,0,3739,0,0,0,0,0,0,0,0,0,0,0,0,0,0,0,0,0,0,0,0,0,0,0,
0,0,0,0,0,0,0,0,0,0,0,0,0,0,0,0,0,0,0,0,0,0,0,0,0,0,0,0,0,0,0,0,0,0,0,0,0,0,0,0,
0,0,0,0,0,0,0,0,0,0,0,0,0,0,0,0,0,0,0,0,0,0,0,0,0,0,0,0,0,0,0,0,0,0,0,0,0,0,0,0,
0,0,0,0,0,0,0,0,0,0,0,0,0,0,0,0,0,0,0,0,0,0,0,0,0,0,0,0,0,0,0,0,0,0,0,0,0,0,0,0,
0,0,0,0,0,0,0,0,0,0,0,0,0,0,0,0,0,0,0,0,0,0,0,0,0,0,0,0,0,0,0,0,0,0,0,0,0,0,0,0,
0,0,0,0,0,0,0,0,0,0,0,0,0,0,0,0,0,0,0,0,0,0,0,0,0,0,0,0,0,0,0,0,0,0,0,0,0,0,0,0,
0,0,0,2804,2805,2805,0,0,0,0,0,2805,2805,2804,2804,0,0,0,0,0,0,0,0,0,0,0,0,0,0,0,0,2723,0,0,2723,0,0,2723,0,0,
0,0,0,2820,2821,2821,0,0,0,0,0,2821,2821,2820,2820,0,0,0,0,0,0,0,0,0,0,0,0,0,0,0,0,2739,0,0,2739,0,0,2739,0,0,
0,0,0,0,0,0,0,0,0,0,0,0,0,0,0,0,0,0,0,0,0,0,0,0,0,0,0,0,0,0,0,0,0,0,0,0,0,0,0,0,
0,0,0,0,0,0,0,0,0,0,0,0,0,0,0,0,0,0,0,0,0,0,0,0,0,0,0,0,0,0,0,2722,0,0,2722,0,0,2722,0,0,
0,0,0,0,0,0,0,0,0,0,0,0,0,0,0,0,0,0,0,0,0,0,0,0,0,0,0,0,0,0,0,2738,0,0,2738,0,0,2738,0,0,
0,0,0,0,0,0,0,0,0,0,0,0,0,0,0,0,0,0,0,0,0,0,0,0,0,0,0,0,0,0,0,0,0,0,0,0,0,0,0,0,
0,0,0,0,0,0,0,0,0,0,0,0,0,0,0,0,0,0,0,0,0,0,0,0,0,0,0,0,0,0,0,0,0,0,0,0,0,0,0,0,
0,0,0,0,0,0,0,0,0,0,0,0,0,0,0,0,0,0,0,0,0,0,0,0,0,0,0,0,0,0,0,0,0,0,0,0,0,0,0,0,
0,0,0,0,0,0,0,0,0,0,0,0,0,0,0,0,0,0,0,0,0,0,0,0,0,0,0,0,0,0,0,2691,0,0,2691,0,0,2691,0,0,
0,0,0,0,0,0,0,2692,0,2692,0,2692,0,0,0,0,0,0,0,0,0,0,0,0,0,0,0,0,0,0,0,2707,0,0,2707,0,0,2707,0,0,
0,0,0,0,0,0,0,2708,0,2708,0,2708,0,0,0,0,0,0,0,0,0,0,0,0,0,0,0,0,0,0,0,0,0,0,0,0,0,0,0,0,
0,0,0,0,0,2694,0,0,0,0,0,0,0,2693,0,0,0,0,0,0,0,0,0,0,0,0,0,0,0,0,0,2690,0,0,2690,0,0,2690,0,0,
0,0,0,0,0,2710,0,0,0,0,0,0,0,2709,0,0,0,0,0,0,0,0,0,0,0,0,0,0,0,0,0,2706,0,0,2706,0,0,2706,0,0,
0,0,0,0,0,0,0,2689,0,2689,0,2689,0,0,0,0,0,0,0,0,0,0,0,0,0,0,0,0,0,0,0,0,0,0,0,0,0,0,0,0,
0,0,0,0,0,0,0,2705,0,2705,0,2705,0,0,0,0,0,0,0,0,0,0,0,0,0,0,0,0,0,0,0,0,0,0,0,0,0,0,0,0,
0,0,0,0,0,0,0,0,0,0,0,0,0,0,0,0,0,0,0,0,0,0,0,0,0,0,0,0,0,0,0,0,0,0,0,0,0,0,0,0,
0,0,0,0,0,0,0,0,0,0,0,0,0,0,0,0,0,0,0,0,0,0,0,0,0,0,0,0,0,0,0,0,0,0,0,0,0,0,0,0
</data>
 </layer>
 <layer id="5" name="furniture" width="40" height="30">
  <properties>
   <property name="collides" value="true"/>
  </properties>
  <data encoding="csv">
0,0,0,0,0,0,0,0,0,0,0,0,0,0,0,0,0,0,0,0,0,0,0,0,0,0,0,0,0,0,0,0,0,0,0,0,0,0,0,0,
0,0,0,0,0,0,0,0,0,0,0,0,0,0,0,0,0,0,0,0,0,0,0,0,0,0,0,0,0,0,0,0,0,0,0,0,0,0,2759,0,
0,0,0,0,0,0,0,0,0,0,0,0,0,0,0,0,0,0,0,0,0,0,0,0,0,4533,0,0,0,0,0,0,0,0,0,0,0,0,2775,0,
0,0,0,0,0,0,0,0,0,0,0,0,0,0,0,0,0,0,0,0,0,0,0,0,0,4549,0,0,0,0,0,0,0,0,3255,3256,0,0,2791,0,
0,0,0,0,0,3409,3410,3411,0,0,0,0,0,4209,4210,4211,0,0,0,0,0,5079,5080,0,0,0,0,0,0,0,0,0,0,0,3269,3272,0,0,0,0,
0,0,0,0,0,3425,3426,3427,0,0,0,0,0,4225,4226,4227,0,0,0,0,0,5095,5096,0,0,0,0,0,0,0,0,0,0,0,3270,3271,0,0,2759,0,
0,0,0,0,0,3441,3442,3443,0,0,0,0,0,4241,4242,4245,0,0,0,0,0,0,0,0,0,0,0,0,0,0,0,0,0,0,3286,3287,0,0,2775,0,
0,0,0,0,0,0,0,0,0,0,0,0,0,4257,4258,4259,0,0,0,0,0,0,0,0,0,0,0,0,0,0,0,0,0,0,0,0,0,0,2791,0,
0,0,0,0,0,0,0,0,0,0,0,0,0,0,0,0,0,0,0,0,0,0,0,0,0,0,0,0,0,0,0,0,0,0,0,0,0,0,0,0,
0,0,0,3604,3605,3606,3652,3653,3654,0,0,0,3813,3814,3815,3816,0,0,0,0,0,0,0,0,0,0,0,0,0,0,0,0,0,0,0,0,0,0,0,0,
0,0,0,3620,3621,3622,3668,3669,3670,0,0,0,3829,3830,3831,3832,0,0,0,0,0,0,0,0,0,0,0,0,0,0,0,0,0,0,0,0,0,0,0,0,
0,0,0,3636,3637,3638,3684,3685,3686,0,0,0,3845,3846,3847,3848,0,0,0,0,0,0,0,0,0,0,0,0,0,0,0,0,0,0,0,0,0,0,0,0,
0,0,0,0,0,0,0,0,0,0,0,0,0,0,0,0,0,0,0,0,0,0,0,0,0,0,0,0,0,0,0,0,0,0,0,0,0,0,0,0,
0,0,0,0,0,0,0,2679,0,0,2679,0,0,0,0,0,0,0,0,0,0,0,0,0,0,0,0,0,0,0,0,0,0,0,0,0,0,0,0,0,
0,0,0,0,0,0,0,2695,0,0,2695,0,0,0,0,0,0,0,0,0,0,0,0,0,0,0,0,0,0,0,3019,3020,3021,3019,3020,3021,3019,3020,3021,0,
0,0,0,0,0,0,0,2711,0,0,2711,0,0,0,0,0,0,0,0,0,0,0,0,0,0,0,0,0,0,0,3019,3020,3021,3019,3020,3021,3019,3020,3021,0,
0,0,0,0,0,0,0,0,0,0,0,0,0,0,0,0,0,0,0,0,0,0,0,0,0,0,0,0,0,0,3035,3036,3037,3035,3036,3037,3035,3036,3037,0,
0,0,0,0,0,0,0,0,0,0,0,0,0,0,0,0,0,0,0,0,0,0,0,0,0,0,0,0,0,0,0,0,0,0,0,0,0,0,0,0,
0,0,0,0,0,0,0,2679,0,0,2679,0,0,0,0,0,0,0,0,0,0,0,0,0,0,0,0,0,0,0,0,0,0,0,0,0,0,0,0,0,
0,0,0,0,0,0,0,2695,0,0,2695,0,0,0,0,0,0,0,0,0,0,0,0,0,0,0,0,0,0,0,0,0,0,0,0,0,0,0,0,0,
0,0,0,0,0,0,0,2711,0,0,2711,0,0,0,0,0,0,0,0,0,0,0,0,0,0,0,0,0,0,0,0,0,0,0,0,0,0,0,0,0,
0,0,0,0,0,0,0,0,0,0,0,0,0,0,0,0,0,0,0,0,0,0,0,0,0,0,0,0,0,0,0,0,0,0,0,0,0,0,0,0,
0,0,0,0,0,0,0,0,0,0,0,0,0,0,0,0,0,0,0,0,0,0,0,0,0,0,0,0,0,0,3016,3017,3018,3016,3017,3018,3016,3017,3018,0,
0,0,0,0,0,0,2572,2573,2573,2573,2573,2573,2574,0,0,0,0,0,0,0,0,0,0,2887,2888,0,0,0,0,0,3016,3017,3018,3016,3017,3018,3016,3017,3018,0,
0,0,0,0,0,0,2588,2589,2589,2589,2589,2589,2590,0,0,0,0,0,0,0,0,0,0,2903,2904,0,0,0,0,0,3032,3033,3034,3032,3033,3034,3032,3033,3034,0,
0,0,0,0,0,0,2588,2589,2589,2589,2589,2589,2590,0,0,0,0,0,0,0,0,0,0,0,0,0,0,0,0,0,0,0,0,0,0,0,0,0,0,0,
0,0,0,0,0,0,2604,2605,2605,2605,2605,2605,2606,0,0,0,0,0,0,0,0,0,0,2919,2920,0,0,0,0,0,0,0,0,0,0,0,0,0,0,0,
0,0,0,0,0,0,0,0,0,0,0,0,0,0,0,0,0,0,0,0,0,0,0,2935,2936,0,0,0,0,0,0,0,0,0,0,0,0,0,0,0,
0,0,0,0,0,0,0,0,0,0,0,0,0,0,0,0,0,0,0,0,0,0,0,0,0,0,0,0,0,0,0,0,0,0,0,0,0,0,0,0,
0,0,0,0,0,0,0,0,0,0,0,0,0,0,0,0,0,0,0,0,0,0,0,0,0,0,0,0,0,0,0,0,0,0,0,0,0,0,0,0
</data>
 </layer>
 <layer id="8" name="computers" width="40" height="30">
  <data encoding="csv">
0,0,0,0,0,0,0,0,0,0,0,0,0,0,0,0,0,0,0,0,0,0,0,0,0,0,0,0,0,0,0,0,0,0,0,0,0,0,0,0,
0,0,0,0,0,0,0,0,0,0,0,0,0,0,0,0,0,0,0,0,0,0,0,0,0,0,0,0,0,0,0,0,0,0,0,0,0,0,0,0,
0,0,0,0,0,0,0,0,0,0,0,0,0,0,0,0,0,0,0,0,0,0,0,0,0,0,0,0,0,0,0,0,0,0,0,0,0,0,0,0,
0,0,0,0,0,0,0,0,0,0,0,0,0,0,0,0,0,0,0,0,0,0,0,0,0,0,0,0,0,0,0,0,0,0,0,0,0,0,0,0,
0,0,0,0,0,0,0,0,0,0,0,0,0,0,0,0,0,0,0,0,0,0,0,0,0,0,0,0,0,0,0,0,0,0,0,0,0,0,0,0,
0,0,0,0,0,0,0,0,0,0,0,0,0,0,0,0,0,0,0,0,0,0,0,0,0,0,0,0,0,0,0,0,0,0,0,0,0,0,0,0,
0,0,0,0,0,0,0,0,0,0,0,0,0,0,0,0,0,0,0,0,0,0,0,0,0,0,0,0,0,0,0,0,0,0,0,0,0,0,0,0,
0,0,0,0,0,0,0,0,0,0,0,0,0,0,0,0,0,0,0,0,0,0,0,0,0,0,0,0,0,0,0,0,0,0,0,0,0,0,0,0,
0,0,0,0,0,0,0,0,0,0,0,0,0,0,0,0,0,0,0,0,0,0,0,0,0,0,0,0,0,0,0,2794,2795,0,0,0,0,0,0,0,
0,0,0,0,0,0,0,0,0,0,0,0,0,0,0,0,0,0,0,0,0,0,0,0,0,0,0,0,0,0,0,2810,2811,0,0,0,0,0,0,0,
0,0,0,0,0,0,0,0,0,0,0,0,0,0,0,0,0,0,0,0,0,0,0,0,0,0,0,0,0,0,0,0,0,0,0,0,0,0,0,0,
0,0,0,0,0,0,0,0,0,0,0,0,0,0,0,0,0,0,0,0,0,0,0,0,0,0,0,0,0,0,0,0,0,0,0,0,0,0,0,0,
0,0,0,0,0,0,0,0,0,0,0,0,0,0,0,0,0,0,0,0,0,0,0,0,0,0,0,0,0,0,0,0,0,0,0,0,0,0,0,0,
0,0,0,0,0,0,0,0,0,0,0,0,0,0,0,0,0,0,0,0,0,0,0,0,0,0,0,0,0,0,0,0,0,0,0,0,0,0,0,0,
0,0,0,0,0,0,0,0,0,0,0,0,0,0,0,0,0,0,0,0,0,0,0,0,0,0,0,0,0,0,3086,3087,3088,0,3071,3072,3054,3055,3056,0,
0,0,0,0,0,0,0,0,0,0,0,0,0,0,0,0,0,0,0,0,0,0,0,0,0,0,0,0,0,0,2984,2985,2986,3083,3084,3085,2766,2767,2768,0,
0,0,0,0,0,0,0,0,0,0,0,0,0,0,0,0,0,0,0,0,0,0,0,0,0,0,0,0,0,0,3000,3001,3002,3099,3100,3101,0,0,0,0,
0,0,0,0,0,0,0,0,0,0,0,0,0,0,0,0,0,0,0,0,0,0,0,0,0,0,0,0,0,0,0,0,0,0,0,0,0,0,0,0,
0,0,0,0,0,0,0,0,0,0,0,0,0,2794,2795,0,0,0,0,0,0,0,0,0,0,0,0,0,0,0,0,0,0,0,0,0,0,0,0,0,
0,0,0,0,0,0,0,0,0,0,0,0,0,2810,2811,0,0,0,0,0,0,0,0,0,0,0,0,0,0,0,0,0,0,0,0,0,0,0,0,0,
0,0,0,0,0,0,0,0,0,0,0,0,0,0,0,0,0,0,0,0,0,0,0,0,0,0,0,0,0,0,0,0,0,0,0,0,0,0,0,0,
0,0,0,0,0,0,0,0,0,0,0,0,0,0,0,0,0,0,0,0,0,0,0,0,0,0,0,0,0,0,0,0,0,0,0,0,0,0,0,0,
0,0,0,0,0,0,0,0,0,0,0,0,0,0,0,0,0,0,0,0,0,0,0,2889,2890,0,0,0,0,0,0,3087,3088,3054,3055,3056,3070,3071,3072,0,
0,0,0,0,0,0,0,0,0,0,0,0,0,0,0,0,0,0,0,0,0,0,0,2905,2906,0,0,0,0,0,3022,3023,3024,2782,2783,2784,3051,3052,3053,0,
0,0,0,0,0,0,0,0,0,0,0,0,0,0,0,0,0,0,0,0,0,0,0,0,0,0,0,0,0,0,3038,3039,3040,0,0,0,3067,3068,3069,0,
0,0,0,0,0,0,0,0,0,0,0,0,0,0,0,0,0,0,0,0,0,0,0,2889,2890,0,0,0,0,0,0,0,0,0,0,0,0,0,0,0,
0,0,0,0,0,0,0,0,0,0,0,0,0,0,0,0,0,0,0,0,0,0,0,2905,2906,0,0,0,0,0,0,0,0,0,0,0,0,0,0,0,
0,0,0,0,0,0,0,0,0,0,0,0,0,0,0,0,0,0,0,0,0,0,0,0,0,0,0,0,0,0,0,0,0,0,0,0,0,0,0,0,
0,0,0,0,0,0,0,0,0,0,0,0,0,0,0,0,0,0,0,0,0,0,0,0,0,0,0,0,0,0,0,0,0,0,0,0,0,0,0,0,
0,0,0,0,0,0,0,0,0,0,0,0,0,0,0,0,0,0,0,0,0,0,0,0,0,0,0,0,0,0,0,0,0,0,0,0,0,0,0,0
</data>
 </layer>
 <layer id="9" name="chill zone" width="40" height="30">
  <data encoding="csv">
0,0,0,0,0,0,0,0,0,0,0,0,0,0,0,0,0,0,0,0,0,0,0,0,0,0,0,0,0,0,0,0,0,0,0,0,0,0,0,0,
0,0,0,4065,4167,4168,4169,4170,4171,0,0,0,0,0,0,0,0,0,0,0,0,0,0,0,0,0,0,0,0,0,0,0,0,0,0,0,0,0,0,0,
0,0,0,4081,4183,4184,4185,4186,4187,0,0,0,0,0,0,0,0,0,0,0,0,0,0,0,0,0,0,0,0,0,0,0,0,0,0,0,0,0,0,0,
0,0,0,4097,4199,4200,4201,4202,4203,0,0,0,0,0,0,0,0,0,0,0,0,0,0,0,0,0,0,0,0,0,0,0,0,0,0,0,0,0,0,0,
0,0,0,0,0,0,0,0,0,0,0,0,0,0,0,0,0,0,0,0,0,0,0,0,0,0,0,0,0,0,0,0,0,0,0,0,0,0,0,0,
0,0,0,0,0,0,0,0,0,0,0,0,0,0,0,0,0,0,0,0,0,0,0,0,0,0,0,0,0,0,0,0,0,0,0,0,0,0,0,0,
0,0,0,0,0,0,0,0,0,0,0,0,0,0,0,0,0,0,0,0,0,0,0,0,0,0,0,0,0,0,0,0,0,0,0,0,0,0,0,0,
0,0,0,0,0,0,0,0,0,0,0,0,0,0,0,0,0,0,0,0,0,0,0,0,0,0,0,0,0,0,0,0,0,0,0,0,0,0,0,0,
0,0,0,0,0,0,0,0,0,0,0,0,0,0,0,0,0,0,0,0,0,0,0,0,0,0,0,0,0,0,0,0,0,0,0,0,0,0,0,0,
0,0,0,0,0,0,0,0,0,0,0,0,0,0,0,0,0,0,0,0,0,0,0,0,0,0,0,0,0,0,0,0,0,0,0,0,0,0,0,0,
0,0,0,0,0,0,0,0,0,0,0,0,0,0,0,0,0,0,0,0,0,0,0,0,0,0,0,0,0,0,0,0,0,0,0,0,0,0,0,0,
0,0,0,0,0,0,0,0,0,0,0,0,0,0,0,0,0,0,0,0,0,0,0,0,0,0,0,0,0,0,0,0,0,0,0,0,0,0,0,0,
0,0,0,0,0,0,3700,3701,3702,0,0,0,0,0,0,0,0,0,0,0,0,0,0,0,0,0,0,0,0,0,0,0,0,0,0,0,0,0,0,0,
0,0,0,0,0,0,0,0,0,0,0,0,0,0,0,0,0,0,0,0,0,0,0,0,0,0,0,0,0,0,0,0,0,0,0,0,0,0,0,0,
0,0,0,0,0,0,0,0,0,0,0,0,0,0,0,0,0,0,0,0,0,0,0,0,0,0,0,0,0,0,0,0,0,0,0,0,0,0,0,0,
0,0,0,0,0,0,0,0,0,0,0,0,0,0,0,0,0,0,0,0,0,0,0,0,0,0,0,0,0,0,0,0,0,0,0,0,0,0,0,0,
0,0,0,0,0,0,0,0,0,0,0,0,0,0,0,0,0,0,0,0,0,0,0,0,0,0,0,0,0,0,0,0,0,0,0,0,0,0,0,0,
0,0,0,0,0,0,0,0,0,0,0,0,0,0,0,0,0,0,0,0,0,0,0,0,0,0,0,0,0,0,0,0,0,0,0,0,0,0,0,0,
0,0,0,0,0,0,0,0,0,0,0,0,0,0,0,0,0,0,0,0,0,0,0,0,0,0,0,0,0,0,0,0,0,0,0,0,0,0,0,0,
0,0,0,0,0,0,0,0,0,0,0,0,0,0,0,0,0,0,0,0,0,0,0,0,0,0,0,0,0,0,0,0,0,0,0,0,0,0,0,0,
0,0,0,0,0,0,0,0,0,0,0,0,0,0,0,0,0,0,0,0,0,0,0,0,0,0,0,0,0,0,0,0,0,0,0,0,0,0,0,0,
0,0,0,0,0,0,0,0,0,0,0,0,0,0,0,0,0,0,0,0,0,0,0,0,0,0,0,0,0,0,0,0,0,0,0,0,0,0,0,0,
0,0,0,0,0,0,0,0,0,0,0,0,0,0,0,0,0,0,0,0,0,0,0,0,0,0,0,0,0,0,0,0,0,0,0,0,0,0,0,0,
0,0,0,0,0,0,0,0,0,0,0,0,0,0,0,0,0,0,0,0,0,0,0,0,0,0,0,0,0,0,0,0,0,0,0,0,0,0,0,0,
0,0,0,0,0,0,0,0,0,0,0,0,0,0,0,0,0,0,0,0,0,0,0,0,0,0,0,0,0,0,0,0,0,0,0,0,0,0,0,0,
0,0,0,0,0,0,0,0,0,0,0,0,0,0,0,0,0,0,0,0,0,0,0,0,0,0,0,0,0,0,0,0,0,0,0,0,0,0,0,0,
0,0,0,0,0,0,0,0,0,0,0,0,0,0,0,0,0,0,0,0,0,0,0,0,0,0,0,0,0,0,0,0,0,0,0,0,0,0,0,0,
0,0,0,0,0,0,0,0,0,0,0,0,0,0,0,0,0,0,0,0,0,0,0,0,0,0,0,0,0,0,0,0,0,0,0,0,0,0,0,0,
0,0,0,0,0,0,0,0,0,0,0,0,0,0,0,0,0,0,0,0,0,0,0,0,0,0,0,0,0,0,0,0,0,0,0,0,0,0,0,0,
0,0,0,0,0,0,0,0,0,0,0,0,0,0,0,0,0,0,0,0,0,0,0,0,0,0,0,0,0,0,0,0,0,0,0,0,0,0,0,0
</data>
 </layer>
 <layer id="11" name="extra things" width="40" height="30">
  <data encoding="csv">
0,0,0,0,0,0,0,0,0,0,0,0,0,0,0,0,0,0,0,0,0,0,0,0,0,0,0,0,0,0,0,0,0,0,0,0,0,0,0,0,
0,0,0,0,0,0,0,0,0,0,0,0,0,0,0,2808,2809,0,0,0,0,0,0,0,0,0,0,2760,2761,0,2794,2795,0,0,0,0,0,0,0,0,
0,0,0,0,0,0,0,0,0,0,0,0,0,0,0,2824,2825,0,0,0,0,0,0,0,0,0,0,2776,2777,0,2810,2811,0,0,0,0,0,0,0,0,
0,0,0,0,0,0,0,0,0,0,0,0,0,0,0,2840,2841,0,0,0,0,0,0,0,0,0,0,2792,2793,0,0,0,0,0,0,0,0,0,0,0,
0,0,0,0,0,0,0,0,0,0,0,0,0,0,0,0,0,0,0,0,0,0,0,0,0,0,0,0,0,0,0,0,0,0,0,0,0,0,0,0,
0,0,0,0,0,0,0,0,0,0,0,0,0,0,0,0,0,0,0,0,0,0,0,0,0,0,0,0,0,0,0,0,0,0,0,0,0,0,0,0,
0,0,0,0,0,0,0,0,0,0,0,0,0,0,0,0,0,0,0,0,0,0,0,0,0,0,0,0,0,0,0,0,0,0,0,0,0,0,0,0,
0,0,0,0,0,0,0,0,0,0,0,0,0,0,0,0,0,0,0,0,0,0,0,0,0,0,0,0,0,0,0,0,0,0,0,0,0,0,0,0,
0,0,0,0,0,0,0,0,0,0,0,0,0,0,0,0,0,0,0,0,0,0,0,0,0,0,0,0,0,0,0,2794,2795,0,0,2760,2761,0,0,0,
0,0,0,0,0,0,0,0,0,0,0,0,0,0,0,0,0,0,0,0,0,0,0,0,0,0,2953,2954,2955,0,0,2810,2811,0,0,2776,2777,0,0,0,
0,0,0,0,0,0,0,0,0,0,0,0,0,0,0,0,0,0,0,0,0,0,0,0,0,0,2937,2938,2939,0,0,0,0,0,0,2792,2793,0,0,0,
0,0,0,0,0,0,0,0,0,0,0,0,0,0,0,0,0,0,0,0,0,0,0,0,0,0,0,0,0,0,0,0,0,0,0,0,0,0,0,0,
0,0,0,0,0,0,0,0,0,0,0,0,0,0,0,0,0,0,0,0,0,0,0,0,0,0,0,0,0,0,0,0,0,0,0,0,0,0,0,0,
0,0,0,0,0,0,0,0,0,0,0,0,0,0,0,0,0,0,0,0,0,0,0,0,0,0,0,0,0,0,0,0,0,0,0,0,0,0,0,0,
0,0,0,0,0,0,0,0,0,0,0,0,0,0,0,0,0,0,0,0,0,0,0,0,0,0,0,0,0,0,0,0,0,0,0,0,0,0,0,0,
0,0,0,0,0,0,0,0,0,0,0,0,0,0,0,0,0,0,0,0,0,0,0,0,0,0,0,0,0,0,0,0,0,0,0,0,0,0,0,0,
0,0,0,0,0,0,0,0,0,0,0,0,0,0,0,0,0,0,0,0,0,0,0,0,0,0,0,0,0,0,0,0,0,0,0,0,0,0,0,0,
0,0,0,0,0,0,0,0,0,0,0,0,0,0,0,0,0,0,0,0,0,0,0,0,0,0,0,0,0,0,0,0,0,0,0,0,0,0,0,0,
0,0,2808,2809,2808,2809,0,0,0,0,0,0,0,2794,2795,0,0,0,0,0,0,0,0,0,0,0,0,0,0,0,0,0,0,0,0,0,0,0,0,0,
0,0,2824,2825,2824,2825,0,0,0,0,0,0,0,2810,2811,0,0,0,0,0,0,0,0,0,0,0,0,0,0,0,0,0,0,0,0,0,0,0,0,0,
0,0,2840,2841,2840,2841,0,0,0,0,0,0,0,0,0,0,0,0,0,0,0,0,0,0,0,0,0,0,0,0,0,0,0,0,0,0,0,0,0,0,
0,0,0,0,0,0,0,0,0,0,0,0,0,0,0,0,0,0,0,0,0,0,0,0,0,0,0,0,0,0,0,0,0,0,0,0,0,0,0,0,
0,0,0,0,0,0,0,0,0,0,0,0,0,0,0,0,0,0,0,0,0,0,0,0,0,0,0,0,0,0,0,0,0,0,0,0,0,0,0,0,
0,0,0,0,0,0,0,0,0,0,0,0,0,0,0,0,0,0,0,0,0,0,0,0,0,0,0,0,0,0,0,0,0,0,0,0,0,0,0,0,
0,0,0,0,0,0,0,0,0,0,0,0,0,0,0,0,0,0,0,0,0,0,0,0,0,0,0,0,0,0,0,0,0,0,0,0,0,0,0,0,
0,0,0,0,0,0,0,0,0,0,0,0,0,0,0,0,0,0,0,0,0,0,0,0,0,0,0,0,0,0,0,0,0,0,0,0,0,0,0,0,
0,0,0,0,0,0,0,0,0,0,0,0,0,0,0,0,0,0,0,0,0,0,0,0,0,0,0,0,0,0,0,0,0,0,0,0,0,0,0,0,
0,0,0,0,0,0,0,0,0,0,0,0,0,0,0,0,0,0,0,0,0,0,0,0,0,0,0,0,0,0,0,0,0,0,0,0,0,0,0,0,
0,0,0,0,0,0,0,0,0,0,0,0,0,0,0,0,0,0,0,0,0,0,0,0,0,0,0,0,0,0,0,0,0,0,0,0,0,0,0,0,
0,0,0,0,0,0,0,0,0,0,0,0,0,0,0,0,0,0,0,0,0,0,0,0,0,0,0,0,0,0,0,0,0,0,0,0,0,0,0,0
</data>
 </layer>
 <layer id="10" name="decoration" width="40" height="30">
  <data encoding="csv">
0,0,0,0,0,0,0,0,0,0,0,0,0,0,0,0,0,0,0,0,0,0,0,0,0,0,0,0,0,0,0,0,0,0,0,0,0,0,0,0,
0,0,0,0,0,0,0,0,0,0,0,0,4975,4976,0,0,0,0,0,2813,0,0,0,0,0,0,0,0,0,0,0,0,0,0,4988,4989,4990,2696,0,0,
0,0,0,0,0,0,0,0,0,0,0,0,4991,4992,0,0,0,2813,0,2829,0,0,0,0,0,0,0,0,0,0,0,0,0,0,5004,5005,5006,2712,0,0,
0,0,0,0,0,0,0,0,0,0,0,0,0,0,0,0,0,2829,0,2845,0,0,0,0,0,0,0,0,0,0,0,0,0,0,0,5255,0,0,0,0,
0,0,0,0,0,0,0,0,0,0,0,0,0,3782,3782,3783,0,2845,0,0,0,0,0,0,0,0,0,0,0,0,0,0,0,0,0,0,0,0,0,0,
0,0,0,0,0,0,5255,0,0,0,0,0,0,3798,3798,3799,0,0,0,0,0,0,0,0,0,0,0,0,0,0,0,0,0,0,4875,4876,0,0,0,0,
0,0,0,0,0,0,0,0,0,0,0,0,0,0,0,0,0,0,0,0,0,0,0,0,0,0,0,0,0,0,0,0,0,0,4891,4892,0,0,0,0,
0,0,0,0,0,0,0,0,0,0,0,0,0,0,0,0,0,0,0,0,0,0,0,0,0,0,0,0,0,0,0,0,0,0,0,0,0,0,0,0,
0,0,0,0,0,0,0,0,0,0,0,0,0,0,0,0,0,0,0,0,0,0,0,2755,0,0,0,0,0,0,0,0,0,0,0,0,0,0,2813,0,
0,0,0,3714,3715,0,0,3714,3715,0,0,0,0,0,0,0,0,0,0,0,0,0,0,2771,5114,0,0,0,0,0,0,0,0,0,0,0,0,0,2829,0,
0,0,0,0,3718,0,0,3718,0,0,0,0,0,3826,0,0,0,0,0,0,0,0,0,5129,5130,0,0,0,0,0,0,0,0,0,0,0,0,0,2845,0,
0,0,0,0,3734,0,0,3734,0,0,0,0,0,0,0,0,0,3796,0,0,0,0,0,5145,5146,0,0,0,0,0,0,0,0,0,0,0,0,0,0,0,
0,0,0,0,0,0,0,0,0,0,0,0,0,0,0,0,0,3812,0,0,0,0,0,0,0,0,0,0,0,0,0,0,0,0,0,0,0,0,0,0,
0,0,0,0,0,0,0,0,0,0,0,0,0,0,0,0,2813,2753,2754,0,0,0,0,0,0,0,0,0,0,0,0,0,0,0,0,0,0,0,0,0,
0,0,0,0,0,0,0,0,0,0,0,0,0,0,0,0,2829,2769,2770,0,0,0,0,0,0,0,0,0,0,0,0,0,0,0,0,0,0,0,0,0,
0,0,0,0,0,0,0,0,0,0,0,0,0,0,0,0,2845,0,0,0,0,0,0,0,0,0,0,0,0,0,0,0,0,0,0,0,0,4845,4846,0,
0,0,0,0,0,0,0,0,0,0,0,0,0,0,0,0,0,0,0,0,0,0,0,0,0,0,0,0,0,0,0,0,0,0,0,0,0,4861,4862,0,
0,0,0,0,0,0,0,0,0,0,0,0,0,0,0,0,0,0,0,0,0,0,0,0,0,0,0,0,0,0,0,0,0,0,0,0,0,0,0,0,
0,0,0,0,0,0,0,0,0,0,0,0,0,0,0,2696,2729,0,0,0,0,0,0,0,0,0,0,0,0,0,0,0,0,0,0,0,0,0,0,0,
0,0,0,0,0,0,0,0,0,0,0,0,0,0,0,2712,2745,2813,0,0,0,0,0,0,0,0,0,0,0,0,0,0,0,0,0,0,0,0,0,0,
0,0,0,0,0,0,0,0,0,0,0,0,0,0,0,0,0,2829,0,0,0,0,0,0,0,0,0,0,0,0,0,0,0,0,0,0,0,0,0,0,
0,0,0,0,0,0,0,0,0,0,0,0,0,0,0,0,0,2845,0,0,0,0,0,0,0,0,0,0,0,0,0,0,0,0,0,0,0,0,0,0,
0,0,0,0,0,0,0,0,0,0,0,0,0,0,0,0,0,0,0,0,0,0,0,0,0,0,0,0,0,0,0,0,0,0,0,0,0,0,0,0,
0,0,0,0,0,0,0,0,0,0,0,0,0,0,0,0,0,0,0,0,0,0,0,0,0,0,0,0,0,0,0,0,0,0,0,0,0,0,0,0,
0,0,0,0,0,0,0,0,0,2785,4843,4844,0,0,0,0,0,0,0,0,0,0,0,0,0,0,0,0,0,0,0,0,0,0,0,0,0,0,0,0,
0,0,0,0,0,0,0,0,0,2801,4859,4860,0,0,0,0,0,0,0,0,0,0,0,0,0,0,0,0,0,0,0,0,0,0,0,0,0,0,0,0,
0,0,0,0,0,0,0,0,0,0,0,0,0,0,0,0,0,0,0,0,0,0,0,0,0,0,0,0,0,0,0,0,0,0,0,0,0,0,2787,0,
0,0,0,0,0,0,0,0,0,0,0,0,0,0,0,0,0,0,0,0,0,0,0,0,0,0,0,0,0,0,0,0,0,0,0,0,0,2787,2803,0,
0,0,0,0,0,0,0,0,0,0,0,0,0,0,0,0,0,0,0,0,0,0,0,0,0,0,0,0,0,0,0,0,0,0,0,0,2802,2803,2786,0,
0,0,0,0,0,0,0,0,0,0,0,0,0,0,0,0,0,0,0,0,0,0,0,0,0,0,0,0,0,0,0,0,0,0,0,0,0,0,0,0
</data>
 </layer>
 <objectgroup id="16" name="interactions">
  <object id="14" name="chair" x="346.667" y="705.333" width="45.3333" height="68">
   <properties>
    <property name="direction" value="down"/>
    <property name="sitx" type="int" value="11"/>
    <property name="sity" type="int" value="23"/>
    <property name="type" value="chair"/>
   </properties>
  </object>
  <object id="15" name="chair" x="412" y="765.333" width="44" height="60">
   <properties>
    <property name="direction" value="left"/>
    <property name="sitx" type="int" value="13"/>
    <property name="sity" type="int" value="25"/>
    <property name="type" value="chair"/>
   </properties>
  </object>
  <object id="16" name="chair" x="348" y="848" width="42.6667" height="50.6667">
   <properties>
    <property name="direction" value="up"/>
    <property name="sitx" type="int" value="11"/>
    <property name="sity" type="int" value="26"/>
    <property name="type" value="chair"/>
   </properties>
  </object>
  <object id="17" name="chair" x="285.333" y="846.667" width="38.6667" height="50.6667">
   <properties>
    <property name="direction" value="up"/>
    <property name="sitx" type="int" value="9"/>
    <property name="sity" type="int" value="26"/>
    <property name="type" value="chair"/>
   </properties>
  </object>
  <object id="18" name="chair" x="220" y="844" width="38.6667" height="50.6667">
   <properties>
    <property name="direction" value="up"/>
    <property name="sitx" type="int" value="7"/>
    <property name="sity" type="int" value="26"/>
    <property name="type" value="chair"/>
   </properties>
  </object>
  <object id="19" name="chair" x="162.667" y="776" width="29.3333" height="50.6667">
   <properties>
    <property name="direction" value="right"/>
    <property name="sitx" type="int" value="5"/>
    <property name="sity" type="int" value="25"/>
    <property name="type" value="chair"/>
   </properties>
  </object>
  <object id="20" name="chair" x="224" y="714.667" width="33.3333" height="49.3333">
   <properties>
    <property name="direction" value="down"/>
    <property name="sitx" type="int" value="7"/>
    <property name="sity" type="int" value="23"/>
    <property name="type" value="chair"/>
   </properties>
  </object>
  <object id="21" name="chair" x="286.667" y="718.667" width="32" height="41.3333">
   <properties>
    <property name="direction" value="down"/>
    <property name="sitx" type="int" value="9"/>
    <property name="sity" type="int" value="23"/>
    <property name="type" value="chair"/>
   </properties>
  </object>
  <object id="22" name="chair" x="990.667" y="682.667" width="33.3333" height="46.6667">
   <properties>
    <property name="direction" value="down"/>
    <property name="sitx" type="int" value="31"/>
    <property name="sity" type="int" value="22"/>
    <property name="type" value="chair"/>
   </properties>
  </object>
  <object id="23" name="chair" x="1090.67" y="685.333" width="28" height="42.6667">
   <properties>
    <property name="direction" value="down"/>
    <property name="sitx" type="int" value="34"/>
    <property name="sity" type="int" value="22"/>
    <property name="type" value="chair"/>
   </properties>
  </object>
  <object id="24" name="chair" x="1189.33" y="681.333" width="26.6667" height="46.6667">
   <properties>
    <property name="direction" value="down"/>
    <property name="sitx" type="int" value="37"/>
    <property name="sity" type="int" value="22"/>
    <property name="type" value="chair"/>
   </properties>
  </object>
  <object id="28" name="chair" x="1181.33" y="782.667" width="34.6667" height="45.3333">
   <properties>
    <property name="direction" value="up"/>
    <property name="sitx" type="int" value="37"/>
    <property name="sity" type="int" value="24"/>
    <property name="type" value="chair"/>
   </properties>
  </object>
  <object id="29" name="chair" x="1082.67" y="778.667" width="46.6667" height="54.6667">
   <properties>
    <property name="direction" value="up"/>
    <property name="sitx" type="int" value="34"/>
    <property name="sity" type="int" value="24"/>
    <property name="type" value="chair"/>
   </properties>
  </object>
  <object id="30" name="chair" x="992" y="786.667" width="29.3333" height="37.3333">
   <properties>
    <property name="direction" value="up"/>
    <property name="sitx" type="int" value="31"/>
    <property name="sity" type="int" value="24"/>
    <property name="type" value="chair"/>
   </properties>
  </object>
  <object id="31" x="985.333" y="529.333" width="38.6667" height="45.3333">
   <properties>
    <property name="direction" value="up"/>
    <property name="sitx" type="int" value="31"/>
    <property name="sity" type="int" value="16"/>
    <property name="type" value="chair"/>
   </properties>
  </object>
  <object id="32" name="chair" x="989.333" y="425.333" width="36" height="48">
   <properties>
    <property name="direction" value="down"/>
    <property name="sitx" type="int" value="31"/>
    <property name="sity" type="int" value="13"/>
    <property name="type" value="chair"/>
   </properties>
  </object>
  <object id="33" name="chair" x="1081.33" y="424" width="37.3333" height="46.6667">
   <properties>
    <property name="direction" value="down"/>
    <property name="sitx" type="int" value="34"/>
    <property name="sity" type="int" value="13"/>
    <property name="type" value="chair"/>
   </properties>
  </object>
  <object id="34" name="chair" x="1181.33" y="426.667" width="34.6667" height="45.3333">
   <properties>
    <property name="direction" value="down"/>
    <property name="sitx" type="int" value="37"/>
    <property name="sity" type="int" value="13"/>
    <property name="type" value="chair"/>
   </properties>
  </object>
  <object id="35" x="1182.67" y="526.667" width="33.3333" height="41.3333">
   <properties>
    <property name="direction" value="up"/>
    <property name="sitx" type="int" value="37"/>
    <property name="sity" type="int" value="16"/>
    <property name="type" value="chair"/>
   </properties>
  </object>
  <object id="36" x="1082.67" y="525.333" width="40" height="44">
   <properties>
    <property name="direction" value="up"/>
    <property name="sitx" type="int" value="34"/>
    <property name="sity" type="int" value="16"/>
    <property name="type" value="chair"/>
   </properties>
  </object>
  <object id="38" name="chair" x="1112" y="133.333" width="38.6667" height="46.6667">
   <properties>
    <property name="direction" value="left"/>
    <property name="sitx" type="int" value="35"/>
    <property name="sity" type="int" value="4"/>
    <property name="type" value="chair"/>
   </properties>
  </object>
  <object id="39" name="chair" x="274.667" y="144" width="41.3333" height="74.6667">
   <properties>
    <property name="direction" value="left"/>
    <property name="sitx" type="int" value="9"/>
    <property name="sity" type="int" value="5"/>
    <property name="type" value="chair"/>
   </properties>
  </object>
  <object id="41" name="chair" x="96" y="140" width="44" height="82.6667">
   <properties>
    <property name="direction" value="right"/>
    <property name="sitx" type="int" value="3"/>
    <property name="sity" type="int" value="5"/>
    <property name="type" value="chair"/>
   </properties>
  </object>
  <object id="43" name="chair" x="445.333" y="436" width="32" height="37.3333">
   <properties>
    <property name="direction" value="down"/>
    <property name="sitx" type="int" value="14"/>
    <property name="sity" type="int" value="14"/>
    <property name="type" value="chair"/>
   </properties>
  </object>
  <object id="44" name="chair" x="416" y="440" width="28" height="32">
   <properties>
    <property name="direction" value="down"/>
    <property name="sitx" type="int" value="13"/>
    <property name="sity" type="int" value="14"/>
    <property name="type" value="chair"/>
   </properties>
  </object>
  <object id="47" name="chair" x="382.667" y="438.667" width="33.3333" height="37.3333">
   <properties>
    <property name="direction" value="down"/>
    <property name="sitx" type="int" value="12"/>
    <property name="sity" type="int" value="14"/>
    <property name="type" value="chair"/>
   </properties>
  </object>
  <object id="48" name="chair" x="352" y="441.333" width="29.3333" height="32">
   <properties>
    <property name="direction" value="down"/>
    <property name="sitx" type="int" value="11"/>
    <property name="sity" type="int" value="14"/>
    <property name="type" value="chair"/>
   </properties>
  </object>
  <object id="49" x="188" y="441.333" width="34.6667" height="32"/>
  <object id="50" name="chair" x="158.667" y="441.333" width="34.6667" height="34.6667">
   <properties>
    <property name="direction" value="down"/>
    <property name="sitx" type="int" value="5"/>
    <property name="sity" type="int" value="14"/>
    <property name="type" value="chair"/>
   </properties>
  </object>
  <object id="51" name="chair" x="126.667" y="442.667" width="36" height="28">
   <properties>
    <property name="direction" value="down"/>
    <property name="sitx" type="int" value="4"/>
    <property name="sity" type="int" value="14"/>
    <property name="type" value="chair"/>
   </properties>
  </object>
  <object id="52" name="chair" x="97.3333" y="441.333" width="25.3333" height="30.6667">
   <properties>
    <property name="direction" value="down"/>
    <property name="sitx" type="int" value="3"/>
    <property name="sity" type="int" value="14"/>
    <property name="type" value="chair"/>
   </properties>
  </object>
  <object id="57" name="chair" x="384" y="213.333" width="33.3333" height="41.3333">
   <properties>
    <property name="direction" value="right"/>
    <property name="sitx" type="int" value="12"/>
    <property name="sity" type="int" value="6"/>
    <property name="type" value="chair"/>
   </properties>
  </object>
  <object id="58" name="chair" x="388" y="152" width="26.6667" height="32">
   <properties>
    <property name="direction" value="right"/>
    <property name="sitx" type="int" value="12"/>
    <property name="sity" type="int" value="4"/>
    <property name="type" value="chair"/>
   </properties>
  </object>
  <object id="59" name="chair" x="510.667" y="145.333" width="36" height="42.6667">
   <properties>
    <property name="direction" value="left"/>
    <property name="sitx" type="int" value="16"/>
    <property name="sity" type="int" value="4"/>
    <property name="type" value="chair"/>
   </properties>
  </object>
  <object id="60" name="chair" x="512" y="210.667" width="29.3333" height="38.6667">
   <properties>
    <property name="direction" value="left"/>
    <property name="sitx" type="int" value="16"/>
    <property name="sity" type="int" value="6"/>
    <property name="type" value="chair"/>
   </properties>
  </object>
  <object id="62" name="chair" x="638.667" y="73.3333" width="129.333" height="52">
   <properties>
    <property name="direction" value="down"/>
    <property name="sitx" type="int" value="22"/>
    <property name="sity" type="int" value="3"/>
    <property name="type" value="chair"/>
   </properties>
  </object>
  <object id="63" name="computer" x="965.333" y="753.333" width="76" height="32">
   <properties>
    <property name="type" value="computer"/>
   </properties>
  </object>
  <object id="64" name="computer" x="1062.67" y="753.333" width="74.6667" height="34.6667">
   <properties>
    <property name="type" value="computer"/>
   </properties>
  </object>
  <object id="65" name="computer" x="1157.33" y="753.333" width="76" height="32">
   <properties>
    <property name="type" value="computer"/>
   </properties>
  </object>
  <object id="66" name="computer" x="1157.33" y="498.667" width="76" height="32">
   <properties>
    <property name="type" value="computer"/>
   </properties>
  </object>
  <object id="67" name="computer" x="1061.33" y="497.333" width="80" height="32">
   <properties>
    <property name="type" value="computer"/>
   </properties>
  </object>
  <object id="68" name="computer" x="962.667" y="497.333" width="80" height="33.3333">
   <properties>
    <property name="type" value="computer"/>
   </properties>
  </object>
  <object id="70" name="whiteboard" x="993.333" y="272" width="57.3333" height="46.6667">
   <properties>
    <property name="type" value="whiteboard"/>
   </properties>
  </object>
  <object id="71" name="whiteboard" x="958.667" y="42.6667" width="64" height="53.3333">
   <properties>
    <property name="type" value="whiteboard"/>
   </properties>
  </object>
  <object id="72" name="whiteboard" x="412" y="586.667" width="70.6667" height="54.6667">
   <properties>
    <property name="type" value="whiteboard"/>
   </properties>
  </object>
 </objectgroup>
 <objectgroup id="14" name="player_spawn">
  <object id="5" name="player_spawn" x="654.667" y="877.333"/>
 </objectgroup>
</map>
